assets/icons/24px/stroke/text-24px-1.svg

<svg width="24" height="24" viewBox="0 0 24 24" fill="none" xmlns="http://www.w3.org/2000/svg">
<path fill-rule="evenodd" clip-rule="evenodd" d="M4.91903 13.5999H6.08102L5.50003 11.9731L4.91903 13.5999ZM17.8001 9.24834C18.6289 8.4361 19.7629 7.99999 21 7.99998C21.5523 7.99998 22 8.44769 22 8.99997C22 9.55226 21.5523 9.99998 21 9.99998C20.2371 9.99999 19.6212 10.2639 19.2 10.6767C18.7818 11.0866 18.5 11.6971 18.5 12.5C18.5 13.3029 18.7818 13.9134 19.2 14.3232C19.6212 14.736 20.2371 15 21 14.9999C21.5523 14.9999 22 15.4476 22 15.9999C22 16.5522 21.5523 16.9999 21.0001 16.9999C19.7629 17 18.6289 16.5639 17.8001 15.7517C16.9682 14.9364 16.5 13.797 16.5 12.5C16.5 11.203 16.9682 10.0636 17.8001 9.24834Z" fill="white"/>
</svg>

<svg width="24" height="24" fill="none" xmlns="http://www.w3.org/2000/svg"><path fill-rule="evenodd" clip-rule="evenodd" d="M4.919 13.6h1.162L5.5 11.973 4.919 13.6zM17.8 9.248C18.63 8.436 19.763 8 21 8a1 1 0 1 1 0 2c-.763 0-1.379.264-1.8.677-.418.41-.7 1.02-.7 1.823 0 .803.282 1.413.7 1.823.421.413 1.037.677 1.8.677a1 1 0 0 1 0 2c-1.237 0-2.371-.436-3.2-1.248-.832-.816-1.3-1.955-1.3-3.252 0-1.297.468-2.436 1.3-3.252z" fill="#fff"/></svg>
